icons/svg/seal.svg

﻿<?xml version="1.0" encoding="utf-8"?>
<!DOCTYPE svg PUBLIC "-//W3C//DTD SVG 1.1//EN" "http://www.w3.org/Graphics/SVG/1.1/DTD/svg11.dtd">
<svg xmlns="http://www.w3.org/2000/svg" xmlns:xlink="http://www.w3.org/1999/xlink" version="1.1" baseProfile="full" width="24" height="24" viewBox="0 0 24.00 24.00" enable-background="new 0 0 24.00 24.00" xml:space="preserve">
	<path fill="#000000" fill-opacity="1" stroke-width="1.33333" stroke-linejoin="miter" d="M 20.3943,19.3706L 16.3828,17.9893L 15.0016,22.0008L 11.9248,15.9996L 8.99895,21.9986L 7.61768,17.9871L 3.60619,19.3683L 6.53159,13.3704C 5.57315,12.1727 5,10.6533 5,9C 5,5.13401 8.13401,2 12,2C 15.866,2 19,5.13401 19,9C 19,10.6535 18.4267,12.1731 17.468,13.3708L 20.3943,19.3706 Z M 7,9.00001L 9.68578,10.3429L 9.50615,13.3356L 12.012,11.6811L 14.514,13.333L 14.334,10.3356L 17.0156,8.9948L 14.323,7.64851L 14.5017,4.6727L 12.0162,6.31371L 9.49384,4.64828L 9.67477,7.66262L 7,9.00001 Z "/>
</svg>

<svg xmlns="http://www.w3.org/2000/svg" version="1.1" baseProfile="full" width="24" height="24" viewBox="0 0 24.00 24.00" xml:space="preserve"><path fill="#000" fill-opacity="1" stroke-width="1.333" stroke-linejoin="miter" d="M20.394 19.37l-4.01-1.38L15 22l-3.077-6L9 22l-1.382-4.013-4.012 1.38 2.926-5.997C5.572 12.173 5 10.653 5 9c0-3.866 3.134-7 7-7s7 3.134 7 7c0 1.653-.573 3.173-1.532 4.37l2.926 6zM7 9l2.686 1.343-.18 2.993 2.506-1.655 2.502 1.653-.18-2.997 2.682-1.34-2.693-1.347.18-2.977-2.487 1.64L9.494 4.65l.18 3.015L7 9z"/></svg>
